src/img/icons/account.svg

<svg viewBox="0 0 24 24" fill="none" xmlns="http://www.w3.org/2000/svg">
<path fill-rule="evenodd" clip-rule="evenodd" d="M7.4045 17.357C10.827 16.857 13.1835 16.9 16.6105 17.3745C16.8587 17.4105 17.0855 17.535 17.249 17.7252C17.4125 17.9153 17.5016 18.1582 17.5 18.409C17.5 18.649 17.4175 18.882 17.2685 19.064C17.0088 19.3813 16.7428 19.6934 16.4705 20H17.791C17.874 19.901 17.9575 19.8 18.042 19.6975C18.3386 19.3338 18.5004 18.8788 18.5 18.4095C18.5 17.397 17.761 16.5245 16.7475 16.3845C13.2395 15.899 10.7875 15.8525 7.26 16.368C6.236 16.5175 5.5 17.4035 5.5 18.423C5.5 18.8755 5.6475 19.323 5.927 19.6855C6.0095 19.7925 6.091 19.8975 6.172 20.0005H7.4605C7.20721 19.6973 6.96016 19.3889 6.7195 19.0755C6.57648 18.8879 6.49933 18.6584 6.5 18.4225C6.5 17.884 6.887 17.4325 7.4045 17.357ZM12 12.5C12.394 12.5 12.7841 12.4224 13.1481 12.2716C13.512 12.1209 13.8427 11.8999 14.1213 11.6213C14.3999 11.3427 14.6209 11.012 14.7716 10.648C14.9224 10.2841 15 9.89397 15 9.5C15 9.10603 14.9224 8.71593 14.7716 8.35195C14.6209 7.98797 14.3999 7.65726 14.1213 7.37868C13.8427 7.1001 13.512 6.87913 13.1481 6.72836C12.7841 6.5776 12.394 6.5 12 6.5C11.2044 6.5 10.4413 6.81607 9.87868 7.37868C9.31607 7.94129 9 8.70435 9 9.5C9 10.2956 9.31607 11.0587 9.87868 11.6213C10.4413 12.1839 11.2044 12.5 12 12.5ZM12 13.5C13.0609 13.5 14.0783 13.0786 14.8284 12.3284C15.5786 11.5783 16 10.5609 16 9.5C16 8.43913 15.5786 7.42172 14.8284 6.67157C14.0783 5.92143 13.0609 5.5 12 5.5C10.9391 5.5 9.92172 5.92143 9.17157 6.67157C8.42143 7.42172 8 8.43913 8 9.5C8 10.5609 8.42143 11.5783 9.17157 12.3284C9.92172 13.0786 10.9391 13.5 12 13.5Z" fill="black"/>
<path fill-rule="evenodd" clip-rule="evenodd" d="M12 21C16.9705 21 21 16.9705 21 12C21 7.0295 16.9705 3 12 3C7.0295 3 3 7.0295 3 12C3 16.9705 7.0295 21 12 21ZM12 22C17.523 22 22 17.523 22 12C22 6.477 17.523 2 12 2C6.477 2 2 6.477 2 12C2 17.523 6.477 22 12 22Z" fill="black"/>
</svg>

<svg xmlns="http://www.w3.org/2000/svg" fill="none" viewBox="0 0 24 24"><path fill="#000" fill-rule="evenodd" d="M7.404 17.357c3.423-.5 5.78-.457 9.206.018a1.038 1.038 0 0 1 .89 1.034c0 .24-.082.473-.232.655-.26.317-.525.63-.797.936h1.32l.251-.302c.297-.364.458-.82.458-1.288a2.038 2.038 0 0 0-1.753-2.026c-3.508-.485-5.96-.532-9.487-.016a2.068 2.068 0 0 0-1.76 2.055c0 .453.147.9.427 1.263.083.107.164.212.245.314H7.46c-.253-.303-.5-.611-.74-.924a1.072 1.072 0 0 1-.22-.654c0-.538.387-.99.904-1.065ZM12 12.5a3 3 0 1 0 0-6 3 3 0 0 0 0 6Zm0 1a4 4 0 1 0 0-8 4 4 0 0 0 0 8Z" clip-rule="evenodd"/><path fill="#000" fill-rule="evenodd" d="M12 21a9 9 0 1 0 0-18 9 9 0 0 0 0 18Zm0 1c5.523 0 10-4.477 10-10S17.523 2 12 2 2 6.477 2 12s4.477 10 10 10Z" clip-rule="evenodd"/></svg>
